tools/download-figma-icons/icons/outlined-medium/euro.svg

<svg width="24" height="24" viewBox="0 0 24 24" fill="none" xmlns="http://www.w3.org/2000/svg">
<path fill-rule="evenodd" clip-rule="evenodd" d="M20.1892 14.8231C20.0565 14.4068 20.1795 13.9463 20.5035 13.6501L22.3177 12.0001L20.5042 10.3516C20.1795 10.0546 20.0557 9.59409 20.19 9.17559L20.9347 6.84159L18.5407 6.32034C18.1125 6.22584 17.775 5.88909 17.6805 5.46234L17.1585 3.06534L14.8237 3.81009C14.409 3.94509 13.9462 3.82134 13.6492 3.49659L11.9992 1.68309L10.35 3.49584C10.056 3.82059 9.59624 3.94434 9.17549 3.81009L6.84074 3.06534L6.31874 5.46009C6.22724 5.88684 5.89049 6.22584 5.45999 6.31959L3.06449 6.84159L3.80999 9.17559C3.94424 9.59409 3.82049 10.0546 3.49649 10.3508L1.68224 12.0008L3.49574 13.6493C3.82049 13.9463 3.94349 14.4068 3.80999 14.8238L3.06449 17.1586L5.45924 17.6813C5.88899 17.7728 6.22724 18.1111 6.31949 18.5423L6.84149 20.9356L9.17549 20.1901C9.28874 20.1541 9.40274 20.1368 9.51749 20.1368C9.83174 20.1368 10.1377 20.2681 10.353 20.5081L12 22.3178L13.6492 20.5051C13.9417 20.1803 14.4007 20.0573 14.8207 20.1886L17.1585 20.9356L17.6797 18.5408C17.775 18.1096 18.1132 17.7721 18.543 17.6806L20.9347 17.1593L20.1892 14.8231ZM23.6325 11.1676C23.8657 11.3813 24 11.6843 24 12.0008C24 12.3166 23.8657 12.6196 23.6325 12.8318L21.6922 14.5973L22.4895 17.0963C22.5855 17.3963 22.5503 17.7263 22.3927 18.0001C22.2345 18.2738 21.966 18.4696 21.657 18.5371L19.0942 19.0958L18.537 21.6578C18.4695 21.9653 18.2745 22.2323 18.0023 22.3906C17.7292 22.5503 17.4023 22.5871 17.097 22.4903L14.5972 21.6923L12.8317 23.6326C12.6187 23.8658 12.3158 24.0001 11.9992 24.0001C11.6835 24.0001 11.3805 23.8658 11.1683 23.6326L9.402 21.6923L6.9045 22.4896C6.6015 22.5863 6.27225 22.5503 5.9985 22.3913C5.7255 22.2331 5.5305 21.9653 5.463 21.6571L4.905 19.0951L2.34225 18.5363C2.03475 18.4696 1.767 18.2746 1.60875 18.0016C1.4505 17.7278 1.4145 17.3986 1.50975 17.0978L2.30775 14.5973L0.3675 12.8326C0.13425 12.6196 0 12.3166 0 12.0008C0 11.6843 0.13425 11.3813 0.3675 11.1683L2.3085 9.40358L1.5105 6.90533C1.41375 6.60158 1.4505 6.27158 1.6095 5.99783C1.76775 5.72558 2.03475 5.53058 2.343 5.46308L4.905 4.90508L5.46375 2.34233C5.5305 2.03333 5.72625 1.76558 6.00075 1.60733C6.2745 1.44908 6.603 1.41383 6.90525 1.51058L9.40275 2.30783L11.1683 0.368334C11.5912 -0.0989158 12.4057 -0.100416 12.8317 0.368334L14.5965 2.30858L17.0955 1.51058C17.397 1.41383 17.7278 1.44908 18 1.60808C18.2738 1.76558 18.4695 2.03408 18.537 2.34233L19.0942 4.90508L21.6578 5.46308C21.966 5.53058 22.2345 5.72558 22.392 5.99933C22.5503 6.27308 22.5855 6.60308 22.4888 6.90533L21.6915 9.40358L23.6325 11.1676ZM16.0982 8.37989C15.8665 8.72264 15.4007 8.81264 15.0565 8.58239C13.4282 7.48214 11.2337 7.69289 9.84022 9.08639C9.59497 9.33239 9.39922 9.60689 9.22822 9.89264H13.7627C14.1775 9.89264 14.5127 10.2279 14.5127 10.6426C14.5127 11.0574 14.1775 11.3926 13.7627 11.3926H8.69347C8.63347 11.7976 8.63347 12.2071 8.69347 12.6114H13.7627C14.1775 12.6114 14.5127 12.9466 14.5127 13.3614C14.5127 13.7761 14.1775 14.1114 13.7627 14.1114H9.22897C9.39997 14.3964 9.59497 14.6709 9.84022 14.9161C10.942 16.0179 12.547 16.4026 14.0327 15.9226C14.3792 15.8101 14.7242 15.6384 15.0557 15.4134C15.4 15.1824 15.865 15.2724 16.0975 15.6144C16.3292 15.9571 16.2392 16.4236 15.8965 16.6561C15.448 16.9591 14.9777 17.1924 14.4962 17.3491C13.9202 17.5359 13.3307 17.6274 12.7472 17.6274C11.2817 17.6274 9.85447 17.0521 8.77972 15.9766C8.22922 15.4269 7.81822 14.7909 7.54372 14.1114H5.88772C5.47372 14.1114 5.13772 13.7761 5.13772 13.3614C5.13772 12.9466 5.47372 12.6114 5.88772 12.6114H7.17097C7.12747 12.2064 7.12747 11.7976 7.17097 11.3926H5.88772C5.47372 11.3926 5.13772 11.0574 5.13772 10.6426C5.13772 10.2279 5.47372 9.89264 5.88772 9.89264H7.54372C7.81822 9.21314 8.22922 8.57564 8.77972 8.02589C10.6787 6.12689 13.6705 5.83889 15.8957 7.33889C16.2392 7.57064 16.3292 8.03639 16.0982 8.37989Z" fill="black"/>
</svg>

<svg width="24" height="24" viewBox="0 0 24 24" fill="none" xmlns="http://www.w3.org/2000/svg"><path fill-rule="evenodd" clip-rule="evenodd" d="M20.19 14.823a1.13 1.13 0 0 1 .313-1.173L22.319 12l-1.814-1.648a1.13 1.13 0 0 1-.314-1.176l.745-2.334-2.394-.522a1.133 1.133 0 0 1-.86-.858l-.523-2.397-2.334.745a1.127 1.127 0 0 1-1.175-.313L12 1.683l-1.65 1.813a1.124 1.124 0 0 1-1.175.314l-2.334-.745-.522 2.395a1.125 1.125 0 0 1-.859.86l-2.396.522.746 2.334c.134.418.01.879-.314 1.175L1.682 12l1.814 1.648c.324.297.447.758.314 1.175l-.746 2.335 2.395.522c.43.092.768.43.86.861l.522 2.394 2.334-.746a1.122 1.122 0 0 1 1.178.318L12 22.318l1.65-1.813a1.125 1.125 0 0 1 1.17-.316l2.338.747.522-2.395c.095-.431.433-.769.863-.86l2.392-.522-.746-2.336Zm3.442-3.655a1.126 1.126 0 0 1 0 1.664l-1.94 1.765.797 2.5c.096.3.061.63-.096.903a1.13 1.13 0 0 1-.736.537l-2.563.559-.557 2.562a1.13 1.13 0 0 1-.535.733c-.273.16-.6.196-.905.1l-2.5-.799-1.765 1.94a1.126 1.126 0 0 1-1.663 0l-1.767-1.94-2.497.798a1.124 1.124 0 0 1-1.442-.833l-.558-2.562-2.563-.559a1.126 1.126 0 0 1-.832-1.438l.798-2.5-1.94-1.765a1.13 1.13 0 0 1 0-1.665l1.94-1.764-.797-2.499a1.127 1.127 0 0 1 .832-1.442l2.562-.558.559-2.563a1.124 1.124 0 0 1 1.441-.831l2.498.797 1.765-1.94c.423-.467 1.238-.468 1.664 0l1.764 1.94 2.5-.797a1.127 1.127 0 0 1 1.441.832l.557 2.562 2.564.558a1.127 1.127 0 0 1 .83 1.442l-.796 2.499 1.94 1.764ZM16.099 8.38a.752.752 0 0 1-1.041.202 4.124 4.124 0 0 0-5.217.504c-.245.246-.44.52-.612.807h4.535a.75.75 0 1 1 0 1.5h-5.07c-.06.405-.06.814 0 1.218h5.07a.75.75 0 1 1 0 1.5H9.229c.171.285.366.56.611.805a4.112 4.112 0 0 0 4.193 1.007 4.07 4.07 0 0 0 1.023-.51.751.751 0 0 1 .84 1.243 5.608 5.608 0 0 1-1.4.693 5.599 5.599 0 0 1-5.716-1.373 5.586 5.586 0 0 1-1.236-1.865H5.888a.75.75 0 1 1 0-1.5H7.17a5.708 5.708 0 0 1 0-1.218H5.888a.75.75 0 1 1 0-1.5h1.656A5.592 5.592 0 0 1 8.78 8.026a5.63 5.63 0 0 1 7.116-.687.75.75 0 0 1 .202 1.04Z" fill="currentColor"/></svg>
